libs/ui/packages/crypto-icons/src/svg/ABT.svg

<svg width="24" height="24" viewBox="0 0 24 24" fill="none">
<path d="M4.875 7.86525L12 3.75L19.125 7.86525V16.1348L12 20.25L4.875 16.1348V7.86525ZM5.559 15.3428L8.4165 13.689L9.86625 11.1502L5.559 8.658V15.3428ZM5.90175 15.936L11.6783 19.2728V16.08L8.64975 14.3453L5.90175 15.9352V15.936ZM18.441 8.68125L14.172 11.151L15.621 13.6875L18.441 15.3195V8.68125ZM18.1185 8.07525L12.3622 4.7505V7.98225L13.8323 10.5555L18.1185 8.07525ZM13.5833 11.4915L12.7042 12L14.448 13.0087L13.5833 11.4915ZM13.2435 10.896L12.3622 9.351V11.406L13.2435 10.896ZM9.5955 13.0072L11.3355 12L10.4587 11.493L9.59625 13.0072H9.5955ZM9.336 13.9493L11.6783 15.2902V12.594L9.336 13.9493ZM5.901 8.064L10.206 10.554L11.6783 7.97775V4.72725L5.901 8.064ZM18.1185 15.9247L15.3915 14.3468L12.3622 16.1025V19.2495L18.1185 15.9247ZM14.7075 13.9508L12.3622 12.594V15.3105L14.7075 13.95V13.9508ZM10.7985 10.8975L11.6783 11.406V9.35475L10.7985 10.8975Z" fill="#3EFFFF"/>
</svg>

<svg width="24" height="24" viewBox="0 0 24 24" fill="none"><path fill="#3effff" d="M4.875 7.865 12 3.75l7.125 4.115v8.27L12 20.25l-7.125-4.115zm.684 7.478 2.857-1.654 1.45-2.539L5.56 8.658zm.343.593 5.776 3.337V16.08L8.65 14.345zM18.44 8.681l-4.269 2.47 1.449 2.537 2.82 1.631zm-.322-.606-5.757-3.324v3.231l1.47 2.574zm-4.536 3.417-.879.508 1.744 1.009zm-.34-.596-.88-1.545v2.055zm-3.648 2.111L11.336 12l-.876-.507-.863 1.514m-.259.942 2.342 1.341v-2.696zM5.901 8.064l4.305 2.49 1.472-2.576v-3.25zm12.218 7.86-2.727-1.577-3.03 1.755v3.148zm-3.411-1.973-2.346-1.357v2.717l2.345-1.361m-3.91-3.053.88.508v-2.05z"/></svg>
